X:17
T:5. Ronde
T:Wo bistu
C:Tielman Susato
B:Tielman Susato: "Danserye" (1551) no. 17
R:Ronde
Z:Transcribed by Frank Nordberg - http://www.musicaviva.com
F:http://abc.musicaviva.com/tunes/susato-tielman/susato-1551-17/susato-1551-17-4m.abc
M:4/2
L:1/2
K:F
V:1
FF/F/GG|AAFc|ccB2|A2A2|AA/A/B>A|
V:2
CC/C/ED|FFFE|FE/F/GD/E/|F2F2|FF/F/F>E|
V:3
A,A,/A,/CB,|CCDC|A,F,B,>C|D2C2|CC/C/D>C|
V:4
F,F,/F,/C,G,|F,F,B,,C,|F,A,G,2|D,>E,F,2|F,F,/F,/B,,>B,,|
%
V:1
GFEA|GF2E|F2F2|AA/A/B>A|GFEA|
V:2
DDC>F,|G,CC2|A,2A,2|FF/F/F>E|DDC>F,|
V:3
B,>A,G,C|B,A,G,2|F,2F,2|CC/C/D>C|B,>A,G,C|
V:4
B,,B,,C,>D,|_E,F,C,2|F,,2F,,2|F,F,/F,/B,,>B,,|B,,B,,C,>D,|
%
V:1
GF2E|F2F2::AA/A/GF|FEF2|AA/A/GF|FEF2:|
V:2
G,CC2|A,2A,2::FF/F/DB,|C2A,2|FF/F/DB,|C2A,2:|
V:3
B,A,G,2|F,2F,2::CC/C/ B,/A,/G,/F,/|G,2F,2|CC/C/ B,/A,/G,/F,/|G,2F,2:|
V:4
_E,F,C,2|F,,2F,,2::F,F,/F,/B,,D,|C,C,F,,2|F,F,/F,/B,,D,|C,2F,,2:|
W:
W:
W:  From Musica Viva - http://www.musicaviva.com
W:  the Internet center for free sheet music downloads.
